X:190
T:Up Jumped Spring
C:
N:Gregory J. Thomas
L:1/8
Q:1/4=130
M:3/4
K:Bb
z4 FB | d2 d2 d_d | d2 e3=B | c4 c=B | c2 d2 A2 | B4 BA | B2 c2 (3BcB | A6 | z4 G2 | 
F6 | B6 | F6 | B6 | F3D F2 | _A4 G2 | _G6 | F4 FB | d4 d_d | d2 e2 =B2 | c4 c=B | 
cd z2 A2 | B4 BG | B2 c2 B2 | A6 | z4 G2 | F6 | B6 | F6 | B6 | F4 zF | e2 c2 A2 | 
B6 | z4 GA | B3G B2 | d3c B2 | A3F A2 | c4 =B2 | B3_d B2 | _A4 _G2 | F6 | z4 FB | 
d4 d_d | d2 e2 =B2 | c4 c=B | c2 d2 A2 | B4 BG | B2 c2 B2 | A6 | z4 G2 | F6 | 
B6 | F6 | B6 | F4 zF | e2 c2 A2 | B6 | zA Bc df | zb za gf | dc Bc B=B | cB G4 | 
z4 zD | (3FGA Bc df | g_a gf dA | B6 | _d6 | "Tremelo"d6 | z6 | z6 | z4 zA | =Bc d=e fg | 
_ag f2 cB | ez3/8c/z/8 zz3/8Bz/8(3EF | _GF EC B,G, | A,B, CD EF | GA Bz3/8c/z/8 z2 | 
ed cB cA | cz3/8e/z/8 z3_d | dd dd dB | cc cc c=e | g=e dB Az3/8_d/z/8 | zd ag =ef | 
dz3/8c/z/8 zB dB | G4 zD | FF FF dA | B6 | Ac BG FD | A,C DF AB | df af dz3/8f/z/8 | 
z2 B2 d2 | gf dc BG | FD =EF _G=G | FF =E2 (3ECA, | G,C D_G Az3/8d/z/8 | zG EC A,G, | 
=B,D GE DE | F_G FE DC | B,G, A,B, CD | FF3 FD | FF3 FD | FF3 F=E | E4 zD | Gz3/8G/z/8 zG2D | 
_Az3/8A/z/8 zz3/8A/z/8 zD | B2 Bz3/8B/z/8 z2 | A4 G2 | z4 dB | dz3/8B/z/8 z2 dB | 
dB Gz3/8F/z/8 z2 | z6 | zc BG FD | A,C DF Az3/8B/z/8 | zd f2 ab | a2 fd2A | d4 d_d | 
d2 e2 =B2 | c4 c=B | c2 d2 A2 | B4 BA | B2 c2 B2 | A6 | z4 G2 | F6 | B6 | F6 | 
B6 | F3D F2 | _A4 G2 | _G6 | F4 FB | d4 d_d | d2 e2 =B2 | c4 c=B | cd z2 A2 | 
B4 BG | B2 c2 B2 | A6 | z4 G2 | F6 | B6 | F6 | B6 | F4 zz3/8F/z/8 | e2 c2 A2 | 
B6 | z4 GA | B3G B2 | d3c B2 | A3F A2 | c4 =B2 | B3_d B2 | _A4 _G2 | F6 | z4 FB | 
d4 d_d | d2 e2 =B2 | c4 c=B | c2 d2 A2 | B4 BG | B2 c2 B2 | A6 | z4 G2 | F6 | 
B6 | F6 | B6 | F4 zF | e2 c2 A2 | B6 | z6 | 


